!!!!SEGMENT: pl-kj--bj-muz-4320-iii_katski-apolinary--obertas-op-13.krn
!!!cenid: 18xx:3636
!!!COM: Kątski, Apolinary
!!!COM-rismID: pe30020040
!!!CDT: 1825-1879
!!!CNT: Polish
!!!OTL: Obertas op. 13
!!!PDT:
!!!AGN:
!!!SMS-siglum: PL-Kj
!!!SMS-shelfmark: BJ Muz. 4320 III
!!!SMS-shelfwork: W
!!!SMS-variant:
!!!SMS-altvar:
!!!NIFC-rismSourceID:
!!!NIFC-islandoraID:
!!!URL-pdf-islandora:
!!!URL-scan: https://polona.pl/item/obertas-skomponowany-na-fortepian-dzielo-13,NzE5MDU1MDI/4/#info:metadata @EN{Scan on Polona} @PL{Skany w portalu Polona}
!!!ONB-nifc:
!!!AIN: 1 empty
!!!key:
**kern	**kern	**dynam
*part1	*part1	*part1
*staff2	*staff1	*
*Iempty	*Ipiano	*
*	*I"Piano.	*
*	*I'pf	*
*	*ICklav	*
*clefF4	*clefG2	*
*k[f#c#]	*k[f#c#]	*
*D:	*D:	*
*M3/8	*M3/8	*
=1	=1	=1
!	!LO:TX:a:B:t=Allegro vivace.	!
.	(>16qg#X/	ff
4.r	4.a/) 4.d^/	.
=2	=2	=2
.	(>16qg#X/	.
4.r	4.a/) 4.d^/	.
=3	=3	=3
.	(>16qg#X/	.
4.r	4.a/) 4.d^/	.
=4	=4	=4
.	(>16qg#X/	.
4.r	4.a/) 4.d^/	.
=5	=5	=5
.	(>16qqg#X/	.
4.r	4a/) 4d^/	.
.	8a/ 8d/	.
=6	=6	=6
.	(>16qqg#X/	.
4.r	4a/) 4d^/	.
.	8a/ 8d/	.
=7	=7	=7
.	(>16qqg#X/	.
4.r	4a/) 4d^/	.
.	8a/ 8d/	.
=8	=8	=8
.	(>16qqg#X/	.
4.r	4a/) 4d^/	.
.	8a/ 8d/	.
!!LO:LB:g=original
=9	=9	=9
!	!	!LO:DY:rj
4d\ 4A\ 4F#\ 4D\	(16a\LL	ff
.	16dd\J	.
.	8ff#\	.
.	32qqgg/LLL	.
.	32qqff#/	.
.	32qqee/	.
.	32qqff#/JJJ	.
8c#\ 8A\ 8G\ 8D\	16gg\L	.
.	16ee\JJ)	.
=10	=10	=10
4d\ 4A\ 4F#\ 4D\	(8aa^\L	.
.	16ff#\L	.
.	16dd\	.
8c#\ 8A\ 8G\ 8D\	16gg\	.
.	16ee\JJ)	.
=11	=11	=11
4d\ 4A\ 4F#\ 4D\	(8aa^\L	.
.	16ff#\L	.
.	16dd\	.
8c#\ 8A\ 8G\ 8D\	16gg\	.
.	16ee\JJ)	.
=12	=12	=12
.	(<16qqff#/LL	.
.	16qqgg/JJ	.
4d\ 4A\ 4F#\ 4D\	(8ff#^\L)	.
.	16ee\L	.
.	16b\	.
8e\ 8A\ 8G\ 8D\	16cc#\	.
.	16b\JJ)	.
=13	=13	=13
4d\ 4A\ 4F#\ 4D\	(16a\LL	.
.	16dd\J	.
.	8ff#\	.
.	32qqgg/LLL	.
.	32qqff#/	.
.	32qqee/	.
.	32qqff#/JJJ	.
8c#\ 8A\ 8G\ 8D\	16gg\L	.
.	16ee\JJ)	.
=14	=14	=14
4d\ 4A\ 4F#\ 4D\	(8aa^\L	.
.	16ff#\L	.
.	16dd\	.
8c#\ 8A\ 8G\ 8D\	16gg\	.
.	16ee\JJ)	.
!!LO:LB:g=original
=15	=15	=15
4d\ 4A\ 4F#\ 4D\	(8aa^\L	.
.	16ff#\L	.
.	16dd\	.
8c#\ 8A\ 8G\ 8D\	16gg\	.
.	16ee\JJ)	.
=16	=16	=16
4d\ 4A\ 4F#\ 4D\	(8aa^\L	.
.	16gg\L	.
.	16ee\	.
8d\ 8A\ 8F#\ 8D\	16ff#\	.
.	16dd\JJ)	.
=17	=17	=17
4c#\ 4A\ 4G\ 4D\	(16ee\LL	.
.	16b\JJ	.
.	8cc#\L	.
8c#\ 8A\ 8G\ 8D\	8a\J)	.
=18	=18	=18
4d\ 4A\ 4F#\ 4D\	(8.ff#^\L	.
.	16dd\L	.
8d\ 8A\ 8F#\ 8D\	16a\	.
.	16f#\JJ)	.
=19	=19	=19
4e\ 4A\ 4G\ 4D\	(16b/LL	<
.	16g/JJ	.
.	8cc#/L	.
8e\ 8A\ 8G\ 8D\	8a/J)	[[
=20	=20	=20
4d\ 4A\ 4F#\ 4D\	(8.aa^\L	>
.	16ff#\L	.
8d\ 8A\ 8F#\ 8D\	16dd\	.
.	16a\JJ)	]]
!!LO:LB:g=original
=21	=21	=21
4c#\ 4A\ 4G\ 4D\	(16ee\LL	.
.	16b\JJ	.
.	8cc#\L	.
8c#\ 8A\ 8G\ 8D\	8a\J)	.
=22	=22	=22
4d\ 4A\ 4F#\ 4D\	(8.ff#^\L	.
.	16dd\L	.
8d\ 8A\ 8F#\ 8D\	16a\	.
.	16f#\JJ)	.
=23	=23	=23
4e\ 4A\ 4G\ 4D\	(16b/LL	.
.	16g/JJ	.
.	8cc#/L	.
8e\ 8A\ 8G\ 8D\	8a/J)	.
=24	=24	=24
4d\ 4A\ 4F#\ 4D\	(4dd^\	.
8d\ 8A\ 8F#\ 8D\	8a/)	.
=25	=25	=25
!	!	!LO:DY:rj
4D/ 4AA/ 4FF#/ 4DD/	(16a\LL	ff
.	16dd\J	.
.	8ff#\	.
.	32qqgg/LLL	.
.	32qqff#/	.
.	32qqee/	.
.	32qqff#/JJJ	.
8C#/ 8AA/ 8GG/ 8DD/	16gg\L	.
.	16ee\JJ)	.
=26	=26	=26
4D/ 4AA/ 4FF#/ 4DD/	(8aa^\L	.
.	16ff#\L	.
.	16dd\	.
8C#/ 8AA/ 8GG/ 8DD/	16gg\	.
.	16ee\JJ)	.
!!LO:PB:g=original
=27	=27	=27
4D/ 4AA/ 4FF#/ 4DD/	(8aa^\L	.
.	16ff#\L	.
.	16dd\	.
8C#/ 8AA/ 8GG/ 8DD/	16gg\	.
.	16ee\JJ)	.
=28	=28	=28
.	(<16qqff#/LL	.
.	16qqgg/JJ	.
4D/ 4AA/ 4FF#/ 4DD/	(8ff#^\L)	.
.	16ee\L	.
.	16b\	.
8E/ 8AA/ 8GG/ 8DD/	16cc#\	.
.	16b\JJ)	.
=29	=29	=29
4D/ 4AA/ 4FF#/ 4DD/	(16a\LL	.
.	16dd\J	.
.	8ff#\	.
.	32qqgg/LLL	.
.	32qqff#/	.
.	32qqee/	.
.	32qqff#/JJJ	.
8C#/ 8AA/ 8GG/ 8DD/	16gg\L	.
.	16ee\JJ)	.
=30	=30	=30
4D/ 4AA/ 4FF#/ 4DD/	(8aa^\L	.
.	16ff#\L	.
.	16dd\	.
8C#/ 8AA/ 8GG/ 8DD/	16gg\	.
.	16ee\JJ)	.
=31	=31	=31
4D/ 4AA/ 4FF#/ 4DD/	(8aa^\L	.
.	16ff#\L	.
.	16dd\	.
8C#/ 8AA/ 8GG/ 8DD/	16gg\	.
.	16ee\JJ)	.
=32	=32	=32
4D/ 4AA/ 4FF#/ 4DD/	(8aa^\L	.
.	16gg\L	.
.	16ee\	.
8D/ 8AA/ 8FF#/ 8DD/	16ff#\	.
.	16dd\JJ)	.
!!LO:LB:g=original
=33	=33	=33
4C#/ 4AA/ 4GG/ 4DD/	(16ee\LL	.
.	16b\JJ	.
.	8cc#\L	.
8C#/ 8AA/ 8GG/ 8DD/	8a\J)	.
=34	=34	=34
4D/ 4AA/ 4FF#/ 4DD/	(8.ff#^\L	.
.	16dd\L	.
8D/ 8AA/ 8FF#/ 8DD/	16a\	.
.	16f#\JJ)	.
=35	=35	=35
4E/ 4AA/ 4GG/ 4DD/	(16b/LL	.
.	16g/JJ	.
.	8cc#/L	.
8E/ 8AA/ 8GG/ 8DD/	8a/J)	.
=36	=36	=36
4D/ 4AA/ 4FF#/ 4DD/	(8.aa^\L	.
.	16ff#\L	.
8D/ 8AA/ 8FF#/ 8DD/	16dd\	.
.	16a\JJ)	.
=37	=37	=37
4C#/ 4AA/ 4GG/ 4DD/	(16ee\LL	.
.	16b\JJ	.
.	8cc#\L	.
8C#/ 8AA/ 8GG/ 8DD/	8a\J)	.
=38	=38	=38
4D/ 4AA/ 4FF#/ 4DD/	(8.ff#^\L	.
.	16dd\L	.
8D/ 8AA/ 8FF#/ 8DD/	16a\	.
.	16f#\JJ)	.
!!LO:LB:g=original
=39	=39	=39
4E/ 4AA/ 4GG/ 4DD/	(16b/LL	.
.	16g/JJ	.
.	8cc#/L	.
8E/ 8AA/ 8GG/ 8DD/	8a/J)	.
=40	=40	=40
4D/ 4AA/ 4FF#/ 4DD/	4dd\	.
8D/ 8AA/ 8FF#/ 8DD/	8d/	.
=41||	=41||	=41||
*k[f#]	*k[f#]	*
4F#/ 4D/ 4C/ 4GG^/	(<16d/LL	f
.	16a/JJ	.
!	!LO:TUP:a:problem=klamra łukowa	!
.	24cc\LL	.
.	24dd\	.
.	24cc\JJ	.
8F#/ 8D/ 8C/ 8GG/	16b/LL	.
.	16a/JJ)	.
=42	=42	=42
4G/ 4D/ 4BB/ 4GG^/	(16b/LL	.
.	16a/JJ	.
.	8g/L	.
8G/ 8D/ 8BB/ 8GG/	24a/L	.
.	24b/	.
.	24a/JJ)	.
=43	=43	=43
4A/ 4D/ 4C/ 4GG^/	(8.e^/L	.
.	16g/L	.
8A/ 8D/ 8C/ 8GG/	16f#/	.
.	16a/JJ)	.
=44	=44	=44
4G/ 4D/ 4BB/ 4GG^/	(24d/LL	.
.	24g/	.
.	24b/JJ	.
.	8ee^\L	.
8G/ 8D/ 8BB/ 8GG/	8dd\J)	.
!!LO:LB:g=original
=45	=45	=45
4F#/ 4D/ 4C/ 4GG^/	(<16d/LL	.
.	16a/JJ	.
!	!LO:TUP:a:problem=klamra łukowa	!
.	24cc\LL	.
.	24dd\	.
.	24cc\JJ	.
8F#/ 8D/ 8C/ 8GG/	16b/LL	.
.	16a/JJ)	.
=46	=46	=46
4G/ 4D/ 4BB/ 4GG^/	(16b/LL	.
.	16a/JJ	.
.	8g/L	.
8G/ 8D/ 8BB/ 8GG/	24a/L	.
.	24b/	.
.	24a/JJ)	.
=47	=47	=47
4A/ 4D/ 4C/ 4GG^/	(8.e^/L	.
.	16g/L	.
8A/ 8D/ 8C/ 8GG/	16f#/	.
.	16a/JJ)	.
=48	=48	=48
4G/ 4D/ 4BB/ 4GG^/	(4g^/	.
8G/ 8D/ 8BB/ 8GG/	8d/)	.
=49	=49	=49
4F#/ 4D/ 4C/ 4GG^/	(<16d/LL	.
.	16a/JJ	.
!	!LO:TUP:a:problem=klamra łukowa	!
.	24cc\LL	.
.	24dd\	.
.	24cc\JJ	.
8F#/ 8D/ 8C/ 8GG/	16b/LL	.
.	16a/JJ)	.
=50	=50	=50
4G/ 4D/ 4BB/ 4GG^/	(16b/LL	.
.	16a/JJ	.
.	8g/L	.
8G/ 8D/ 8BB/ 8GG/	24a/L	.
.	24b/	.
.	24a/JJ)	.
!!LO:LB:g=original
=51	=51	=51
4A/ 4D/ 4C/ 4GG^/	(8.e^/L	.
.	16g/L	.
8A/ 8D/ 8C/ 8GG/	16f#/	.
.	16a/JJ)	.
=52	=52	=52
4G/ 4D/ 4BB/ 4GG^/	(24d/LL	.
.	24g/	.
.	24b/JJ	.
.	8ee^\L	.
8G/ 8D/ 8BB/ 8GG/	8dd\J)	.
=53	=53	=53
4F#/ 4D/ 4C/ 4GG^/	(<16d/LL	.
.	16a/JJ	.
!	!LO:TUP:a:problem=klamra łukowa	!
.	24cc\LL	.
.	24dd\	.
.	24cc\JJ	.
8F#/ 8D/ 8C/ 8GG/	16b/LL	.
.	16a/JJ)	.
=54	=54	=54
4G/ 4D/ 4BB/ 4GG^/	(16b/LL	.
.	16a/JJ	.
.	8g/L	.
8G/ 8D/ 8BB/ 8GG/	24a/L	.
.	24b/	.
.	24a/JJ)	.
=55	=55	=55
4A/ 4D/ 4C/ 4GG^/	(8.e^/L	.
.	16g/L	.
8A/ 8D/ 8C/ 8GG/	16f#/	.
.	16a/JJ)	.
=56	=56	=56
4G/ 4D/ 4BB/ 4GG/	4g/	.
8G/ 8D/ 8BB/ 8GG/	8g/	.
!!LO:PB:g=original
=57||	=57||	=57||
*k[fn]	*k[fn]	*
*	*^	*
!	!	!	!LO:DY:rj
8C/L 8GG/ 8CC^/	(8g/L	4e\	ff
8C/ 8GG/ 8CC^/	8cc/J)	.	.
8C/J 8FF#X/ 8CC^/	(16a^/LL	8e-X\	sf
.	32b/L	.	.
.	32a/JJJ)	.	.
=58	=58	=58	=58
8C/L 8GG/ 8CC^/	(16.g/LL	4en\	.
.	32cc/JJk)	.	.
8C/ 8GG/ 8CC^/	(8g/L	.	.
8C/J 8GG/ 8CC^/	8ee^/J)	8e\	sf
=59	=59	=59	=59
8C/L 8GG/ 8CC^/	(24g/LL	4e\	.
.	24a/	.	.
.	24b/J	.	.
8C/ 8GG/ 8CC^/	8cc/J)	.	.
8C/J 8FF#X/ 8CC^/	(16a^/LL	8e-X\	sf
.	32b/L	.	.
.	32a/JJJ)	.	.
=60	=60	=60	=60
8C/L 8GG/ 8CC^/	(16.g/LL	4en\	.
.	32cc/JJk)	.	.
8C/ 8GG/ 8CC^/	(8g/L	.	.
8C/J 8GG/ 8CC^/	8ee^/J)	8e\	sf
=61	=61	=61	=61
8BB/L 8GG/ 8CC^/	(8.dd^/L	4.f\	.
8BB/ 8GG/ 8CC^/	.	.	.
.	16a/L	.	.
8BB/J 8GG/ 8CC^/	16b/	.	sf
.	(32qqa\LLL	.	.
.	32qqb\JJJ	.	.
.	16a/JJ))	.	.
=62	=62	=62	=62
8BB/L 8GG/ 8CC^/	(16g^/LL	4.f\	.
.	16a/JJ	.	.
8BB/ 8GG/ 8CC^/	8b/L	.	.
!	!LO:TUP:b	!	!
8BB/J 8GG/ 8CC^/	24a/L	.	.
.	24b/	.	.
.	24a/JJ)	.	.
!!LO:LB:g=original
=63	=63	=63	=63
8BB/L 8GG/ 8CC^/	(8.dd^/L	4.f\	.
8BB/ 8GG/ 8CC^/	.	.	.
.	16a/L	.	.
8BB/J 8GG/ 8CC^/	16b/	.	sf
.	(32qqa\LLL	.	.
.	32qqb\JJJ	.	.
.	16a/JJ))	.	.
=64	=64	=64	=64
8BB/L 8GG/ 8CC^/	(16g^/LL	4.f\	.
.	16a/JJ	.	.
8BB/ 8GG/ 8CC^/	8b/L	.	.
!	!LO:TUP:b	!	!
8BB/J 8GG/ 8CC^/	24a/L	.	.
.	24b/	.	.
.	24a/JJ)	.	.
=65	=65	=65	=65
8C/L 8GG/ 8CC^/	(8g/L	4e\	ff
8C/ 8GG/ 8CC^/	8cc/J)	.	.
8C/J 8FF#X/ 8CC^/	(16a^/LL	8e-X\	sf
.	32b/L	.	.
.	32a/JJJ)	.	.
=66	=66	=66	=66
8C/L 8GG/ 8CC^/	(16.g/LL	4en\	.
.	32cc/JJk)	.	.
8C/ 8GG/ 8CC^/	(8g/L	.	.
8C/J 8GG/ 8CC^/	8ee^/J)	8e\	sf
=67	=67	=67	=67
8C/L 8GG/ 8CC^/	(24g/LL	4e\	.
.	24a/	.	.
.	24b/J	.	.
8C/ 8GG/ 8CC^/	8cc/J)	.	.
8C/J 8FF#X/ 8CC^/	(16a^/LL	8e-X\	sf
.	32b/L	.	.
.	32a/JJJ)	.	.
!!LO:LB:g=original
=68	=68	=68	=68
8C/L 8GG/ 8CC^/	(16.g/LL	4en\	.
.	32cc/JJk)	.	.
8C/ 8GG/ 8CC^/	(8g/L	.	.
8C/J 8GG/ 8CC^/	8ee^/J)	8e\	sf
=69	=69	=69	=69
8BB/L 8GG/ 8CC^/	(8.dd^/L	4.f\	.
8BB/ 8GG/ 8CC^/	.	.	.
.	16a/L	.	.
8BB/J 8GG/ 8CC^/	16b/	.	sf
.	(32qqa\LLL	.	.
.	32qqb\JJJ	.	.
.	16a/JJ))	.	.
=70	=70	=70	=70
8BB/L 8GG/ 8CC^/	(16g^/LL	4.f\	.
.	16a/JJ	.	.
8BB/ 8GG/ 8CC^/	8b/L	.	.
!	!LO:TUP:b	!	!
8BB/J 8GG/ 8CC^/	24a/L	.	.
.	24b/	.	.
.	24a/JJ)	.	.
=71	=71	=71	=71
8BB/L 8GG/ 8CC^/	(8.dd^/L	4.f\	.
8BB/ 8GG/ 8CC^/	.	.	.
.	16a/L	.	.
8BB/J 8GG/ 8CC^/	16b/	.	sf
.	16g/JJ)	.	.
=72	=72	=72	=72
8C/L 8GG/ 8CC^/	(4cc^/	4e\	.
8C/ 8GG/ 8CC^/	.	.	.
8C/J 8GG/ 8CC^/	8g/)	8r	sf
=73	=73	=73	=73
8C/L 8GG/ 8CC^/	(8g/L	4e\	ff
8C/ 8GG/ 8CC^/	8cc/J)	.	.
8C/J 8FF#X/ 8CC^/	(16a^/LL	8e-X\	sf
.	32b/L	.	.
.	32a/JJJ)	.	.
!!LO:LB:g=original
=74	=74	=74	=74
8C/L 8GG/ 8CC^/	(16.g/LL	4en\	.
.	32cc/JJk)	.	.
8C/ 8GG/ 8CC^/	(8g/L	.	.
8C/J 8GG/ 8CC^/	8ee^/J)	8e\	sf
=75	=75	=75	=75
8C/L 8GG/ 8CC^/	(24g/LL	4e\	.
.	24a/	.	.
.	24b/J	.	.
8C/ 8GG/ 8CC^/	8cc/J)	.	.
8C/J 8FF#X/ 8CC^/	(16a^/LL	8e-X\	sf
.	32b/L	.	.
.	32a/JJJ)	.	.
=76	=76	=76	=76
8C/L 8GG/ 8CC^/	(16.g/LL	4en\	.
.	32cc/JJk)	.	.
8C/ 8GG/ 8CC^/	(8g/L	.	.
8C/J 8GG/ 8CC^/	8ee^/J)	8e\	sf
=77	=77	=77	=77
8BB/L 8GG/ 8CC^/	(8.dd^/L	4.f\	.
8BB/ 8GG/ 8CC^/	.	.	.
.	16a/L	.	.
8BB/J 8GG/ 8CC^/	16b/	.	sf
.	(32qqa\LLL	.	.
.	32qqb\JJJ	.	.
.	16a/JJ))	.	.
=78	=78	=78	=78
8BB/L 8GG/ 8CC^/	(16g^/LL	4.f\	.
.	16a/JJ	.	.
8BB/ 8GG/ 8CC^/	8b/L	.	.
!	!LO:TUP:b	!	!
8BB/J 8GG/ 8CC^/	24a/L	.	.
.	24b/	.	.
.	24a/JJ)	.	.
!!LO:LB:g=original
=79	=79	=79	=79
8BB/L 8GG/ 8CC^/	(8.dd^/L	4.f\	.
8BB/ 8GG/ 8CC^/	.	.	.
.	16a/L	.	.
8BB/J 8GG/ 8CC^/	16b/	.	sf
.	(32qqa\LLL	.	.
.	32qqb\JJJ	.	.
.	16a/JJ))	.	.
=80	=80	=80	=80
8BB/L 8GG/ 8CC^/	(16g^/LL	4.f\	.
.	16a/JJ	.	.
8BB/ 8GG/ 8CC^/	8b/L	.	.
!	!LO:TUP:b	!	!
8BB/J 8GG/ 8CC^/	24a/L	.	.
.	24b/	.	.
.	24a/JJ)	.	.
=81	=81	=81	=81
8C/L 8GG/ 8CC^/	(8g/L	4e\	.
8C/ 8GG/ 8CC^/	8cc/J)	.	.
8C/J 8FF#X/ 8CC^/	(16a^/LL	8e-X\	sf
.	32b/L	.	.
.	32a/JJJ)	.	.
=82	=82	=82	=82
8C/L 8GG/ 8CC^/	(16.g/LL	4en\	.
.	32cc/JJk)	.	.
8C/ 8GG/ 8CC^/	(8g/L	.	.
8C/J 8GG/ 8CC^/	8ee^/J)	8e\	sf
=83	=83	=83	=83
8C/L 8GG/ 8CC^/	(24g/LL	4e\	.
.	24a/	.	.
.	24b/J	.	.
8C/ 8GG/ 8CC^/	8cc/J)	.	.
8C/J 8FF#X/ 8CC^/	(16a^/LL	8e-X\	sf
.	32b/L	.	.
.	32a/JJJ)	.	.
!!LO:PB:g=original
=84	=84	=84	=84
8C/L 8GG/ 8CC^/	(16.g/LL	4en\	.
.	32cc/JJk)	.	.
8C/ 8GG/ 8CC^/	(8g/L	.	.
8C/J 8GG/ 8CC^/	8ee^/J)	8e\	sf
=85	=85	=85	=85
8BB/L 8GG/ 8CC^/	(8.dd^/L	4.f\	.
8BB/ 8GG/ 8CC^/	.	.	.
.	16a/L	.	.
8BB/J 8GG/ 8CC^/	16b/	.	sf
.	(32qqa\LLL	.	.
.	32qqb\JJJ	.	.
.	16a/JJ))	.	.
=86	=86	=86	=86
8BB/L 8GG/ 8CC^/	(16g^/LL	4.f\	.
.	16a/JJ	.	.
8BB/ 8GG/ 8CC^/	8b/L	.	.
!	!LO:TUP:b	!	!
8BB/J 8GG/ 8CC^/	24a/L	.	.
.	24b/	.	.
.	24a/JJ)	.	.
=87	=87	=87	=87
8BB/L 8GG/ 8CC^/	(8.dd^/L	4.f\	.
8BB/ 8GG/ 8CC^/	.	.	.
.	16a/L	.	.
8BB/J 8GG/ 8CC^/	16b/	.	sf
.	16g/JJ)	.	.
=88	=88	=88	=88
8C/L 8GG/ 8CC^/	4cc/	4e\	.
8C/J 8GG/ 8CC^/	.	.	.
8B-X\	8cc/	8e\	sf
*	*v	*v	*
!!LO:LB:g=original
=89||	=89||	=89||
*k[b-]	*k[b-]	*
*	*^	*
.	(16qqcc/LL	.	.
.	16qqdd/JJ	.	.
*^	*	*	*
4A/	4.C\ 4.FF\	(8cc^/L)	4f\	.
.	.	16dd/L	.	.
.	.	16ff/	.	.
8A-X^</	.	16bn^/	8f\	.
.	.	16dd/JJ)	.	.
=90	=90	=90	=90	=90
.	.	(16qqcc/LL	.	.
.	.	16qqdd/JJ	.	.
4An/	4.C\ 4.FF\	(8cc^/L)	4f\	.
.	.	16dd/L	.	.
.	.	16ff/	.	.
8A-X^</	.	16bn^/	8f\	.
.	.	16dd/JJ)	.	.
=91	=91	=91	=91	=91
.	.	(16qqcc/LL	.	.
.	.	16qqdd/JJ	.	.
4An/	4.C\ 4.FF\	(8cc^/L)	4f\	.
.	.	16dd/L	.	.
.	.	16ff/	.	.
8A-X^</	.	16bn^/	8f\	.
.	.	16dd/JJ)	.	.
=92	=92	=92	=92	=92
.	.	(16qqcc/LL	.	.
.	.	16qqdd/JJ	.	.
8G^/L	8C\L 8FF\	(8cc^/L)	4e\	.
8G^/	8C\ 8FF\	16g^/L	.	.
.	.	16b-X/	.	.
8G^/J	8C\J 8FF\	16a^/	8e\	.
.	.	16f/JJ)	.	.
=93	=93	=93	=93	=93
.	.	(16qqcc/LL	.	.
.	.	16qqdd/JJ	.	.
4A/	4.C\ 4.FF\	(8cc^/L)	4f\	.
.	.	16dd/L	.	.
.	.	16ff/	.	.
8A-X^</	.	16bn^/	8f\	.
.	.	16dd/JJ)	.	.
=94	=94	=94	=94	=94
.	.	(16qqcc/LL	.	.
.	.	16qqdd/JJ	.	.
4An/	4.C\ 4.FF\	(8cc^/L)	4f\	.
.	.	16dd/L	.	.
.	.	16ff/	.	.
8A-X^</	.	16bn^/	8f\	.
.	.	16dd/JJ)	.	.
!!LO:LB:g=original
=95	=95	=95	=95	=95
.	.	(16qqcc/LL	.	.
.	.	16qqdd/JJ	.	.
4An/	4.C\ 4.FF\	(8cc^/L)	4f\	.
.	.	16dd/L	.	.
.	.	16ff/	.	.
8A-X^</	.	16bn^/	8f\	.
.	.	16dd/JJ)	.	.
=96	=96	=96	=96	=96
.	.	(16qqcc/LL	.	.
.	.	16qqdd/JJ	.	.
8G^/L	8C\L 8FF\	(8cc^/L)	4e\	.
8G^/	8C\ 8FF\	16g^/L	.	.
.	.	16b-X/	.	.
8G^/J	8C\J 8FF\	16a^/	8e\	.
.	.	16f/JJ)	.	.
=97	=97	=97	=97	=97
.	.	(16qqcc/LL	.	.
.	.	16qqdd/JJ	.	.
4A/	4.C\ 4.FF\	(8cc^/L)	4f\	.
.	.	16dd/L	.	.
.	.	16ff/	.	.
8A-X^</	.	16bn^/	8f\	.
.	.	16dd/JJ)	.	.
=98	=98	=98	=98	=98
.	.	(16qqcc/LL	.	.
.	.	16qqdd/JJ	.	.
4An/	4.C\ 4.FF\	(8cc^/L)	4f\	.
.	.	16dd/L	.	.
.	.	16ff/	.	.
8A-X^</	.	16bn^/	8f\	.
.	.	16dd/JJ)	.	.
=99	=99	=99	=99	=99
.	.	(16qqcc/LL	.	.
.	.	16qqdd/JJ	.	.
4An/	4.C\ 4.FF\	(8cc^/L)	4f\	.
.	.	16dd/L	.	.
.	.	16ff/	.	.
8A-X^</	.	16bn^/	8f\	.
.	.	16dd/JJ)	.	.
=100	=100	=100	=100	=100
.	.	(16qqcc/LL	.	.
.	.	16qqdd/JJ	.	.
8G^/L	8C\L 8FF\	(8cc^/L)	4e\	.
8G^/	8C\ 8FF\	16g^/L	.	.
.	.	16b-X/	.	.
8G^/J	8C\J 8FF\	16a^/	8e\	.
.	.	16f/JJ)	.	.
!!LO:LB:g=original
=101	=101	=101	=101	=101
.	.	(16qqcc/LL	.	.
.	.	16qqdd/JJ	.	.
4A/	4.C\ 4.FF\	(8cc^/L)	4f\	.
.	.	16dd/L	.	.
.	.	16ff/	.	.
8A-X^</	.	16bn^/	8f\	.
.	.	16dd/JJ)	.	.
=102	=102	=102	=102	=102
.	.	(16qqcc/LL	.	.
.	.	16qqdd/JJ	.	.
4An/	4.C\ 4.FF\	(8cc^/L)	4f\	.
.	.	16dd/L	.	.
.	.	16ff/	.	.
8A-X^</	.	16bn^/	8f\	.
.	.	16dd/JJ)	.	.
=103	=103	=103	=103	=103
.	.	(16qqcc/LL	.	.
.	.	16qqdd/JJ	.	.
4An/	4.C\ 4.FF\	(8cc^/L)	4f\	.
.	.	16dd/L	.	.
.	.	16ff/	.	.
8A-X^</	.	16bn^/	8f\	.
.	.	16dd/JJ)	.	.
=104	=104	=104	=104	=104
.	.	(16qqcc/LL	.	.
.	.	16qqdd/JJ	.	.
8G^/L	8C\L 8FF\	(8cc^/L)	4e\	.
8G^/	8C\ 8FF\	16g^/L	.	.
.	.	16b-X/	.	.
8G^/J	8C\J 8FF\	16a^/	8e\	.
.	.	16f/JJ)	.	.
*v	*v	*	*	*
*	*v	*v	*
=105||	=105||	=105||
*k[b-e-]	*k[b-e-]	*
*	*^	*
4A\ 4F\ 4E-\ 4BB-\	16cc/LL	4.f\	p
.	(8qdd/	.	.
.	16ee-/JJ)	.	.
.	(8.dd^/L	.	.
8A\ 8F\ 8E-\ 8BB-\	.	.	.
.	16bn/Jk)	.	.
=106	=106	=106	=106
.	(16qqcc/LL	.	.
.	16qqdd/JJ	.	.
4A\ 4F\ 4E-\ 4BB-\	(16cc/LL)	4.f\	.
.	16g/	.	.
.	16b-X/	.	.
.	16a/	.	.
8A\ 8F\ 8E-\ 8BB-\	16f/	.	.
.	16bn/JJ)	.	.
!!LO:LB:g=original
=107	=107	=107	=107
4A\ 4F\ 4E-\ 4BB-\	16cc/LL	4.f\	.
.	(8qdd/	.	.
.	16ee-/JJ)	.	.
.	(8.dd^/L	.	.
8A\ 8F\ 8E-\ 8BB-\	.	.	.
.	16bn/Jk)	.	.
=108	=108	=108	=108
*	*	*	*^
4A\ 4F\ 4E-\ 4BB-\	16cc/LL	4.f\	<	.
.	16een/JJ	.	.	.
.	(8qee/	.	.	sf
.	(8gg/L)	.	.	.
8A\ 8F\ 8E-\ 8BB-\	8ff/J)	.	[	.
*	*	*	*v	*v
=109	=109	=109	=109
4A\ 4F\ 4E-\ 4BB-\	16cc/LL	4.f\	.
.	(8qdd/	.	.
.	16ee-/JJ)	.	.
.	(8.dd^/L	.	.
8A\ 8F\ 8E-\ 8BB-\	.	.	.
.	16bn/Jk)	.	.
=110	=110	=110	=110
.	(16qqcc/LL	.	.
.	16qqdd/JJ	.	.
4A\ 4F\ 4E-\ 4BB-\	(16cc/LL)	4.f\	.
.	16g/	.	.
.	16b-X/	.	.
.	16a/	.	.
8A\ 8F\ 8E-\ 8BB-\	16f/	.	.
.	16bn/JJ)	.	.
=111	=111	=111	=111
4A\ 4F\ 4E-\ 4BB-\	16cc/LL	4.f\	.
.	(8qdd/	.	.
.	16ee-/JJ)	.	.
.	(8.dd^/L	.	.
8A\ 8F\ 8E-\ 8BB-\	.	.	.
.	16bn/Jk)	.	.
=112	=112	=112	=112
*	*	*	*^
4A\ 4F\ 4E-\ 4BB-\	16cc/LL	4.f\	<	.
.	16een/JJ	.	.	.
.	(8qee/	.	.	sf
.	(8gg/L)	.	.	.
8A\ 8F\ 8E-\ 8BB-\	8ff/J)	.	[	.
*	*	*	*v	*v
*	*v	*v	*
!!LO:PB:g=original
=113	=113	=113
!	!LO:TUP:a	!LO:DY:rj
4B-\ 4F\ 4D\ 4BB-\	24ff\LL 24b-'\	mf
.	24ff\ 24b-'\	.
.	24ff\JJ 24b-'\	.
.	8ff\L 8b-\	.
8B-\ 8F\ 8D\ 8BB-^\	8ff\J 8b-^\	.
=114	=114	=114
.	(<8qeen/	.
4c\ 4F\ 4E-\ 4BB-\	8ff\L 8a^\)	.
.	(<8qee/	.
.	8ff\ 8a^\)	.
.	(<8qee/	.
8c\ 8F\ 8E-\ 8BB-^\	8ff\J 8a^\)	.
=115	=115	=115
!	!LO:TUP:a	!
4B-\ 4F\ 4D\ 4BB-\	24ff\LL 24b-'\	.
.	24ff\ 24b-'\	.
.	24ff\JJ 24b-'\	.
.	8ff\L 8b-\	.
8B-\ 8F\ 8D\ 8BB-^\	8ff\J 8b-^\	.
=116	=116	=116
.	(<8qaa/	.
4B-\ 4F\ 4D\ 4BB-\	8bb-\L 8b-^\)	.
.	(<8qaa/	.
.	8bb-\ 8b-^\)	.
.	(<8qaa/	.
8B-\ 8F\ 8D\ 8BB-^\	8bb-\J 8b-^\)	.
=117	=117	=117
!	!LO:TUP:a	!
4B-\ 4F\ 4D\ 4BB-\	24ff\LL 24b-'\	.
.	24ff\ 24b-'\	.
.	24ff\JJ 24b-'\	.
.	8ff\L 8b-\	.
8B-\ 8F\ 8D\ 8BB-^\	8ff\J 8b-^\	.
=118	=118	=118
.	(<8qeen/	.
4c\ 4F\ 4E-\ 4BB-\	8ff\L 8a^\)	.
.	(<8qee/	.
.	8ff\ 8a^\)	.
.	(<8qee/	.
8c\ 8F\ 8E-\ 8BB-^\	8ff\J 8a^\)	.
!!LO:LB:g=original
=119	=119	=119
!	!LO:TUP:a	!
4B-\ 4F\ 4D\ 4BB-\	24ff\LL 24b-'\	.
.	24ff\ 24b-'\	.
.	24ff\JJ 24b-'\	.
.	8ff\L 8b-\	.
8B-\ 8F\ 8D\ 8BB-^\	8ff\J 8b-^\	.
=120	=120	=120
.	(<8qaa/	.
4B-\ 4F\ 4D\ 4BB-\	8bb-\L 8b-^\)	.
.	(<8qaa/	.
.	8bb-\ 8b-^\)	.
.	(<8qaa/	.
8B-\ 8F\ 8D\ 8BB-^\	8bb-\J 8b-^\)	.
=121||	=121||	=121||
*k[b-e-a-]	*k[b-e-a-]	*
*^	*	*
!	!	!LO:TUP:a	!
*	*	*	*^
!	!	!	!LO:DY:rj	!LO:DY:rj:b=2
4G/ 4BB-/	4.EE-\	24gg\LL 24b-\ 24g'\	ff	sf
*	*	*	*v	*v
.	.	24gg\ 24b-\ 24g'\	.
.	.	24gg\JJ 24b-\ 24g'\	.
.	.	8gg\L 8b-\ 8g'\	.
8G/ 8BB-^/	.	8gg\J 8b-\ 8g'\	.
=122	=122	=122	=122
!	!	!	!LO:DY:b=2
.	.	(8qeen/	sf
8A-/L 8BB-^/	4.EE-\	8ff\L 8b-\ 8f^\)	.
.	.	(8qaan/	.
8A-/ 8BB-^/	.	8bb-\ 8dd\ 8b-^\)	.
.	.	(8qaa/	.
8A-/J 8BB-^/	.	8bb-\J 8dd\ 8b-^\)	.
=123	=123	=123	=123
!	!	!LO:TUP:a	!LO:DY:b=2
4G/ 4BB-/	4.EE-\	24gg\LL 24b-\ 24g'\	sf
.	.	24gg\ 24b-\ 24g'\	.
.	.	24gg\JJ 24b-\ 24g'\	.
.	.	8gg\L 8b-\ 8g'\	.
8G/ 8BB-^/	.	8gg\J 8b-\ 8g'\	.
=124	=124	=124	=124
!	!	!	!LO:DY:b=2
.	.	(<8qeen/	sf
8A-/L 8BB-^/	4.EE-\	8ff\L 8b-\ 8f^\)	.
.	.	(<8qdd/	.
8G/ 8BB-^/	.	8ee-X\ 8b-\ 8e-^\)	.
.	.	(<8qdd/	.
8G/J 8BB-^/	.	8ee-\J 8b-\ 8e-^\)	.
!!LO:LB:g=original
=125	=125	=125	=125
!	!	!LO:TUP:a	!LO:DY:rj:b=2
4G/ 4BB-/	4.EE-\	24gg\LL 24b-\ 24g'\	sf
.	.	24gg\ 24b-\ 24g'\	.
.	.	24gg\JJ 24b-\ 24g'\	.
.	.	8gg\L 8b-\ 8g'\	.
8G/ 8BB-^/	.	8gg\J 8b-\ 8g'\	.
=126	=126	=126	=126
!	!	!	!LO:DY:rj:b=2
.	.	(<8qeen/	sf
8A-/L 8BB-^/	4.EE-\	8ff\L 8b-\ 8f^\)	.
.	.	(<8qaan/	.
8A-/ 8BB-^/	.	8bb-\ 8dd\ 8b-^\)	.
.	.	(<8qaa/	.
8A-/J 8BB-^/	.	8bb-\J 8dd\ 8b-^\)	.
=127	=127	=127	=127
!	!	!LO:TUP:a	!LO:DY:rj:b=2
4G/ 4BB-/	4.EE-\	24gg\LL 24b-\ 24g'\	sf
.	.	24gg\ 24b-\ 24g'\	.
.	.	24gg\JJ 24b-\ 24g'\	.
.	.	8gg\L 8b-\ 8g'\	.
8G/ 8BB-^/	.	8gg\J 8b-\ 8g'\	.
=128	=128	=128	=128
!	!	!	!LO:DY:rj:b=2
.	.	(<8qeen/	sf
8A-/L 8BB-^/	4.EE-\	8ff\L 8b-\ 8f^\)	.
.	.	(<8qdd/	.
8G/ 8BB-^/	.	8ee-X\ 8b-\ 8e-^\)	.
.	.	(<8qdd/	.
8G/J 8BB-^/	.	8ee-\J 8b-\ 8e-^\)	.
=129	=129	=129	=129
!	!	!LO:TUP:a	!LO:DY:rj:b=2
4G/ 4BB-/	4.EE-\	24gg\LL 24b-\ 24g'\	sf
.	.	24gg\ 24b-\ 24g'\	.
.	.	24gg\JJ 24b-\ 24g'\	.
.	.	8gg\L 8b-\ 8g'\	.
8G/ 8BB-^/	.	8gg\J 8b-\ 8g'\	sf
=130	=130	=130	=130
!	!	!	!LO:DY:rj:b=2
.	.	(<8qeen/	sf
8A-/L 8BB-^/	4.EE-\	8ff\L 8b-\ 8f^\)	.
.	.	(<8qaan/	.
8A-/ 8BB-^/	.	8bb-\ 8dd\ 8b-^\)	.
.	.	(<8qaa/	.
8A-/J 8BB-^/	.	8bb-\J 8dd\ 8b-^\)	.
!!LO:LB:g=original
=131	=131	=131	=131
!	!	!LO:TUP:a	!LO:DY:rj:b=2
4G/ 4BB-/	4.EE-\	24gg\LL 24b-\ 24g'\	sf
.	.	24gg\ 24b-\ 24g'\	.
.	.	24gg\JJ 24b-\ 24g'\	.
.	.	8gg\L 8b-\ 8g'\	.
8G/ 8BB-^/	.	8gg\J 8b-\ 8g'\	sf
=132	=132	=132	=132
!	!	!	!LO:DY:rj:b=2
.	.	(<8qeen/	sf
8A-/L 8BB-^/	4.EE-\	8ff\L 8b-\ 8f^\)	.
.	.	(<8qdd/	.
8G/ 8BB-^/	.	8ee-X\ 8b-\ 8e-^\)	.
.	.	(<8qdd/	.
8G/J 8BB-^/	.	8ee-\J 8b-\ 8e-^\)	.
=133	=133	=133	=133
!	!	!LO:TUP:a	!LO:DY:rj:b=2
4G/ 4BB-/	4.EE-\	24gg\LL 24b-\ 24g'\	sf
.	.	24gg\ 24b-\ 24g'\	.
.	.	24gg\JJ 24b-\ 24g'\	.
.	.	8gg\L 8b-\ 8g'\	.
8G/ 8BB-^/	.	8gg\J 8b-\ 8g'\	sf
=134	=134	=134	=134
!	!	!	!LO:DY:rj:b=2
.	.	(<8qeen/	sf
8A-/L 8BB-^/	4.EE-\	8ff\L 8b-\ 8f^\)	.
.	.	(<8qaan/	.
8A-/ 8BB-^/	.	8bb-\ 8dd\ 8b-^\)	.
.	.	(<8qaa/	.
8A-/J 8BB-^/	.	8bb-\J 8dd\ 8b-^\)	.
=135	=135	=135	=135
!	!	!LO:TUP:a	!LO:DY:rj:b=2
4G/ 4BB-/	4.EE-\	24gg\LL 24b-\ 24g\	sf
.	.	24gg\ 24b-\ 24g\	.
.	.	24gg\JJ 24b-\ 24g\	.
.	.	8gg\L 8b-\ 8g\	.
8G/ 8BB-^/	.	8gg\J 8b-\ 8g\	sf
=136	=136	=136	=136
!	!	!	!LO:DY:rj:b=2
.	.	(<8qeen/	sf
8A-/L 8BB-^/	4.EE-\	8ff\L 8b-\ 8f^\)	.
.	.	(<8qdd/	.
8G/ 8BB-^/	.	8ee-X\ 8b-\ 8e-^\)	.
.	.	(<8qdd/	.
8G/J 8BB-^/	.	8ee-\J 8b-\ 8e-^\)	.
*v	*v	*	*
!!LO:LB:g=original
=137||	=137||	=137||
.	(<8qddn/	f
8A-\L 8E-\ 8C\ 8AA-^\	8ee-\L 8e-^\)	.
.	(<8qdd/	.
8A-\ 8E-\ 8C\ 8AA-^\	8ee-\ 8e-^\)	.
.	(<8qdd/	sf
8A-\J 8E-\ 8C\ 8AA-^\	8ee-\J 8e-^\)	.
=138	=138	=138
.	(<8qddn/	.
8B-\L 8E-\ 8D-\ 8AA-^\	8ee-\L 8e-\)	.
.	(<8qdd/	.
8B-\ 8E-\ 8D-\ 8AA-^\	8ee-\ 8e-\)	.
.	(<8qdd/	sf
8B-\J 8E-\ 8D-\ 8AA-^\	8ee-/J 8e-\)	.
=139	=139	=139
*	*^	*
8A-\L 8E-\ 8C\ 8AA-^\	16.cc/LL	4.e-\	.
.	32cc/JJk	.	.
8A-\ 8E-\ 8C\ 8AA-^\	(8.ee-/L	.	.
8A-\J 8E-\ 8C\ 8AA-^\	.	.	.
.	16ddn/Jk)	.	.
=140	=140	=140	=140
.	(16qqb-/LL	.	.
.	16qqcc/JJ	.	.
8G\L 8E-\ 8D-\ 8AA-^\	16.b-/LL)	4e-\	.
.	32g/JJk	.	.
8G\ 8E-\ 8D-\ 8AA-^\	(8b-^/L	.	.
8A-\J 8E-\ 8C\ 8AA-^\	8a-/J)	8e-\	sf
*	*v	*v	*
=141	=141	=141
.	(<8qddn/	.
8A-\L 8E-\ 8C\ 8AA-^\	8ee-\L 8e-\)	.
.	(<8qdd/	.
8A-\ 8E-\ 8C\ 8AA-^\	8ee-\ 8e-\)	.
.	(<8qdd/	sf
8A-\J 8E-\ 8C\ 8AA-^\	8ee-\J 8e-\)	.
=142	=142	=142
.	(<8qddn/	.
8B-\L 8E-\ 8D-\ 8AA-^\	8ee-\L 8e-\)	.
.	(<8qdd/	.
8B-\ 8E-\ 8D-\ 8AA-^\	8ee-\ 8e-\)	.
.	(<8qdd/	sf
8B-\J 8E-\ 8D-\ 8AA-^\	8ee-/J 8e-\)	.
!!LO:PB:g=original
=143	=143	=143
*	*^	*
8A-\L 8E-\ 8C\ 8AA-^\	16.cc/LL	4.e-\	.
.	32cc/JJk	.	.
8A-\ 8E-\ 8C\ 8AA-^\	(8.ee-/L	.	.
8A-\J 8E-\ 8C\ 8AA-^\	.	.	.
.	16ddn/Jk)	.	.
=144	=144	=144	=144
.	(16qqb-/LL	.	.
.	16qqcc/JJ	.	.
8G\L 8E-\ 8D-\ 8AA-^\	16.b-/LL)	4e-\	.
.	32g/JJk	.	.
8G\ 8E-\ 8D-\ 8AA-^\	(8b-^/L	.	.
8A-\J 8E-\ 8C\ 8AA-^\	8a-/J)	8e-\	sf
=145	=145	=145	=145
8A-\L 8E-\ 8C\ 8AA-\	16.cc/LL	4.e-\	.
.	(32cc/JJk	.	.
8A-\ 8E-\ 8C\ 8AA-\	8.ee-/L	.	.
8A-\J 8E-\ 8C\ 8AA-\	.	.	.
.	16ddn/Jk)	.	.
=146	=146	=146	=146
8G\L 8E-\ 8D-\ 8AA-\	16b-/LL	4.e-\	.
.	(16ddn/JJ	.	.
.	8qdd/	.	.
8G\ 8E-\ 8D-\ 8AA-\	8ff^</L	.	.
8A-\J 8E-\ 8D-\ 8AA-\	8ee-^</J)	.	.
=147	=147	=147	=147
8A-\L 8E-\ 8C\ 8AA-\	16.cc/LL	4.e-\	.
.	(32cc/JJk	.	.
8A-\ 8E-\ 8C\ 8AA-\	8.ee-/L	.	.
8A-\J 8E-\ 8C\ 8AA-\	.	.	.
.	16ddn/Jk)	.	.
=148	=148	=148	=148
.	(16qqb-/LL	.	.
.	16qqcc/JJ	.	.
8G\L 8E-\ 8D-\ 8AA-\	16.b-/LL)	4e-\	.
.	32g/JJk	.	.
8G\ 8E-\ 8D-\ 8AA-\	(8b-/L	.	.
8A-\J 8E-\ 8C\ 8AA-^\	8a-/J)	8e-^\	.
!!LO:LB:g=original
=149	=149	=149	=149
8A-\L 8E-\ 8C\ 8AA-\	16.cc/LL	4.e-\	.
.	(32cc/JJk	.	.
8A-\ 8E-\ 8C\ 8AA-\	8.ee-/L	.	.
8A-\J 8E-\ 8C\ 8AA-\	.	.	.
.	16ddn/Jk)	.	.
=150	=150	=150	=150
8G\L 8E-\ 8D-\ 8AA-\	16b-/LL	4.e-\	.
.	(16ddn/JJ	.	.
.	8qdd/	.	.
8G\ 8E-\ 8D-\ 8AA-\	8ff^</L	.	.
8A-\J 8E-\ 8D-\ 8AA-\	8ee-^</J)	.	.
=151	=151	=151	=151
8A-\L 8E-\ 8C\ 8AA-\	16.cc/LL	4.e-\	.
.	(32cc/JJk	.	.
8A-\ 8E-\ 8C\ 8AA-\	8.ee-/L	.	.
8A-\J 8E-\ 8C\ 8AA-\	.	.	.
.	16ddn/Jk)	.	.
=152	=152	=152	=152
.	(16qqb-/LL	.	.
.	16qqcc/JJ	.	.
8G\L 8E-\ 8D-\ 8AA-\	16.b-/LL)	4e-\	.
.	32g/JJk	.	.
8G\ 8E-\ 8D-\ 8AA-\	(8b-/L	.	.
8A-\J 8E-\ 8C\ 8AA-^\	8a-/J)	8e-^\	.
*	*v	*v	*
=153||	=153||	=153||
*k[b-e-a-d-g-]	*k[b-e-a-d-g-]	*
*	*^	*
.	(16qqa-/LL	.	ff
.	16qqb-/JJ	.	.
*^	*	*	*
4F/ 4AA-^/	4.DD-\	(8a-^/L)	4.d-\	.
.	.	16gn/L	.	.
.	.	16e-/	.	.
8F/ 8AA-/	.	16f/	.	.
.	.	16d-/JJ)	.	.
!!LO:LB:g=original
=154	=154	=154	=154	=154
.	.	(16qqa-/LL	.	.
.	.	16qqb-/JJ	.	.
4F/ 4AA-^/	4.DD-\	(8a-^/L)	4.d-\	.
.	.	16gn/L	.	.
.	.	16e-/	.	.
8F/ 8AA-/	.	16f/	.	.
.	.	16d-/JJ)	.	.
=155	=155	=155	=155	=155
.	.	(16qqa-/LL	.	.
.	.	16qqb-/JJ	.	.
4F/ 4AA-^/	4.DD-\	(8a-^/L)	4.d-\	.
.	.	16gn/L	.	.
.	.	16e-/	.	.
8F/ 8AA-/	.	16f/	.	.
.	.	16d-/JJ)	.	.
=156	=156	=156	=156	=156
.	.	(16qqa-/LL	.	.
.	.	16qqb-/JJ	.	.
4F/ 4AA-^/	4.DD-\	(8a-^/L)	4.d-\	.
.	.	16gn/L	.	.
.	.	16e-/	.	.
8F/ 8AA-/	.	16f/	.	.
.	.	16d-/JJ)	.	.
=157	=157	=157	=157	=157
4G-/ 4AA-/	4.DD-\	(16e-/LL	4.c\	.
.	.	(16gn/JJ)	.	.
.	.	(8qg/	.	.
.	.	8.b-^/L)	.	.
8G-/ 8AA-/	.	.	.	.
.	.	16a-/Jk)	.	.
=158	=158	=158	=158	=158
4G-/ 4AA-/	4.DD-\	(16e-/LL	4.c\	.
.	.	(16gn/JJ)	.	.
.	.	(8qg/	.	.
.	.	8.b-^/L)	.	.
8G-/ 8AA-/	.	.	.	.
.	.	16a-/Jk)	.	.
!!LO:LB:g=original
=159	=159	=159	=159	=159
4G-/ 4AA-/	4.DD-\	(16e-/LL	4.c\	.
.	.	(16gn/JJ)	.	.
.	.	(8qg/	.	.
.	.	8.b-^/L)	.	.
8G-/ 8AA-/	.	.	.	.
.	.	16a-/Jk)	.	.
=160	=160	=160	=160	=160
.	.	(16qqgn/LL	.	.
.	.	16qqa-/JJ	.	.
4G-/ 4AA-/	4.DD-\	(16g/LL)	4c\	.
.	.	16e-/	.	.
.	.	16g-X/	.	.
.	.	16f/J	.	.
8F/ 8AA-/	.	8d-^/J)	8d-\	.
=161	=161	=161	=161	=161
.	.	(16qqa-/LL	.	.
.	.	16qqb-/JJ	.	.
4F/ 4AA-^/	4.DD-\	(8a-^/L)	4.d-\	.
.	.	16gn/L	.	.
.	.	16e-/	.	.
8F/ 8AA-/	.	16f/	.	.
.	.	16d-/JJ)	.	.
=162	=162	=162	=162	=162
.	.	(16qqa-/LL	.	.
.	.	16qqb-/JJ	.	.
4F/ 4AA-^/	4.DD-\	(8a-^/L)	4.d-\	.
.	.	16gn/L	.	.
.	.	16e-/	.	.
8F/ 8AA-/	.	16f/	.	.
.	.	16d-/JJ)	.	.
=163	=163	=163	=163	=163
.	.	(16qqa-/LL	.	.
.	.	16qqb-/JJ	.	.
4F/ 4AA-^/	4.DD-\	(8a-^/L)	4.d-\	.
.	.	16gn/L	.	.
.	.	16e-/	.	.
8F/ 8AA-/	.	16f/	.	.
.	.	16d-/JJ)	.	.
!!LO:LB:g=original
=164	=164	=164	=164	=164
.	.	(16qqa-/LL	.	.
.	.	16qqb-/JJ	.	.
4G-/ 4AA-^/	4.DD-\	(8a-^/L)	4.d-\	.
.	.	16gn/L	.	.
.	.	16e-/	.	.
8G-/ 8AA-/	.	16f/	.	.
.	.	16d-/JJ)	.	.
=165	=165	=165	=165	=165
4G-/ 4AA-/	4.DD-\	(16e-/LL	4.c\	.
.	.	(16gn/JJ)	.	.
.	.	(8qg/	.	.
.	.	8.b-^/L)	.	.
8G-/ 8AA-/	.	.	.	.
.	.	16a-/Jk)	.	.
=166	=166	=166	=166	=166
4G-/ 4AA-/	4.DD-\	(16e-/LL	4.c\	.
.	.	(16gn/JJ)	.	.
.	.	(8qg/	.	.
.	.	8.b-^/L)	.	.
8G-/ 8AA-/	.	.	.	.
.	.	16a-/Jk)	.	.
=167	=167	=167	=167	=167
4G-/ 4AA-/	4.DD-\	(16e-/LL	4.c\	.
.	.	16gn/JJ)	.	.
.	.	(8qg/	.	.
.	.	(8.b-^/L)	.	.
8G-/ 8AA-/	.	.	.	.
.	.	16a-/Jk)	.	.
=168	=168	=168	=168	=168
.	.	(16qqgn/LL	.	.
.	.	16qqa-/JJ	.	.
4G-/ 4AA-/	4.DD-\	(16g/LL)	4c\	.
.	.	16e-/	.	.
.	.	16g-X/	.	.
.	.	16f/J	.	.
8F/ 8AA-/	.	8d-^/J)	8d-\	.
!!LO:PB:g=original
=169	=169	=169	=169	=169
.	.	(16qqe-/LL	.	.
.	.	16qqf/JJ	.	.
4G-/ 4AA-/	4.DD-\	(16e-/LL)	4c\	.
.	.	16B-/	.	.
.	.	16d-/	.	.
.	.	16c/J	.	.
8F/ 8AA-/	.	8A-^/J)	8A-\	.
=170	=170	=170	=170	=170
4G-/ 4AA-/	4.DD-\	(16A-/LL	4A-\	.
.	.	16c/JJ)	.	.
.	.	(8qc/	.	.
.	.	(8e-/L)	.	.
8F/ 8AA-/	.	8d-/J)	8d-\	.
=171	=171	=171	=171	=171
4G-/ 4AA-/	4.DD-\	(16e-/LL	4c\	.
.	.	16gn/JJ)	.	.
.	.	(8qg/	.	.
.	.	(8b-/L)	.	.
8F/ 8AA-/	.	8a-^/J)	8d-\	.
=172	=172	=172	=172	=172
.	.	(16qqgn/LL	.	.
.	.	16qqa-/JJ	.	.
4G-/ 4AA-/	4.DD-\	(16gny/LL)	4c\	.
.	.	16e-/	.	.
.	.	16g-X/	.	.
.	.	16f/J	.	.
8F/ 8AA-/	.	8d-^/J)	8d-\	.
=173	=173	=173	=173	=173
.	.	(16qqe-/LL	.	.
.	.	16qqf/JJ	.	.
4G-/ 4AA-/	4.DD-\	(16e-/LL)	4c\	.
.	.	16B-/	.	.
.	.	16d-/	.	.
.	.	16c/J	.	.
8F/ 8AA-/	.	8A-^/J)	8A-\	.
!!LO:LB:g=original
=174	=174	=174	=174	=174
4G-/ 4AA-/	4.DD-\	(16A-/LL	4A-\	.
.	.	16c/JJ)	.	.
.	.	(8qc/	.	.
.	.	(8e-/L)	.	.
8F/ 8AA-/	.	8d-/J)	8d-\	.
=175	=175	=175	=175	=175
4G-/ 4AA-/	4.DD-\	(16e-/LL	4c\	.
.	.	16gn/JJ)	.	.
.	.	(8qg/	.	.
.	.	(8b-/L)	.	.
8F/ 8AA-/	.	8a-^/J)	8d-\	.
=176	=176	=176	=176	=176
4E-/ 4AA-/	4.DD-\	(16e-/LL	4c\	.
.	.	16gn/JJ)	.	.
.	.	8qg/	.	.
.	.	(8b-/L	.	.
8E-/ 8AA-/	.	8a-^/J)	8c\	.
*	*	*v	*v	*
=177	=177	=177	=177
4.D-/	4AA-\ 4DD-\	16.a-/LL 16.d-'/	.
!	!	!LO:TX:b:t=po-co a po-co cres-cen-do:ext2=cd:problem=dynamics with extention lines	!
.	.	32a-/JJk 32d-'/	<
.	.	8a-/L 8d-'/	.
.	8AA-\ 8DD-\	8a-/J 8d-'/	.
*v	*v	*	*
=178	=178	=178
(8qGGn/	(8qgn/	.
4AA-/ 4DD-^>/)	8a-/L 8c/)	.
.	(8qg/	.
.	8a-/ 8c/)	.
.	(8qg/	.
8AA-/ 8DD-/	8a-/J 8c^/)	.
=179	=179	=179
(8qGGn/	.	.
4AA-/ 4DD-^>/)	16.a-/LL 16.d-'/	.
.	32a-/JJk 32d-'/	.
.	8a-/L 8d-'/	.
8AA-/ 8DD-/	8a-/J 8d-'^/	.
!!LO:LB:g=original
=180	=180	=180
(8qGGn/	(8qgn/	.
4AA-/ 4DD-^>/)	8a-/L 8c/)	.
.	(8qg/	.
.	8a-/ 8c/)	.
.	(8qg/	.
8AA-/ 8DD-/	8a-/J 8c/)	.
=181	=181	=181
(8qGGn/	.	.
4.AA-/ 4.DD-^>/)	16a-/LL 16d-/	.
.	16a-/JJ 16d-/	.
.	8a-/L 8d-/	.
.	8a-/J 8d-^/	.
=182	=182	=182
16AA-/LL 16DD-'/	4.r	.
16AA-/JJ 16DD-'/	.	.
8AA-/L 8DD-'/	.	.
8AA-/J 8DD-^/	.	.
*	*clefF4	*
=183	=183	=183
4.r	16A-\LL 16D-'\	.
.	16A-\JJ 16D-'\	.
.	8A-\L 8D-'\	.
.	8A-\J 8D-^\	.
=184	=184	=184
16AA-/LL 16DD-'/	4.r	.
16AA-/JJ 16DD-'/	.	.
8AA-/L 8DD-'/	.	.
8AA-/J 8DD-^/	.	.
*	*clefG2	*
=185	=185	=185
.	(8qgn/	.
4r	4.a-/ 4.d-/)	.
(8qGGn/	.	.
8AA-/ 8DD-^/)	.	.
=186	=186	=186
.	(8qGn</	.
4r	4.A-</ 4.D-<^/)	.
(8qGGn/	.	.
8AA-\ 8DD-^\)	.	.
!!LO:LB:g=original
=187	=187	=187
.	(8qgn/	.
4r	4.a-/ 4.d-/)	.
(8qGGn/	.	.
8AA-/ 8DD-^/)	.	.
=188	=188	=188
.	(8qGn</	.
4r	4.A-</ 4.D-<^/)	[
(<8qGGn/	.	.
8AA-\ 8DD-^<\)	.	.
=189	=189	=189
!	!LO:TX:b:t=al pianis-si-mo:ext2=cd:problem=dynamics with extention lines	!
.	(8qgn/	pp
4.r	4.a-/ 4.d-/)	.
=190	=190	=190
(8qGGn/	.	.
4.AA-/ 4.DD-^/)	4.r	.
=191	=191	=191
.	(8qGn</	.
4.rFF	4.A-</ 4.D-<^/)	.
=192	=192	=192
(8qGGn/	.	.
4.AA-/ 4.DD-^/)	4.r	.
=193	=193	=193
(8qGGn/	.	.
4.AA-/ 4.DD-^/)	4.r	.
=194	=194	=194
(8qGGn/	.	.
4.AA-/ 4.DD-^/)	4.r	.
=195	=195	=195
(>8qFF##X/	.	.
4.GG#X/ 4.CC#X^/)	4.r	.
=196	=196	=196
(>8qFF##X/	.	.
4.GG#X/ 4.CC#X^/)	4.r	.
!!LO:LB:g=original
=197||	=197||	=197||
*k[bnenandngnf#c#]	*k[bnenandngnf#c#]	*
*^	*^	*
!	!	!	!	!LO:DY:rj
4d/	4A\ 4D\	(16a/LL	4f#\	ppp
!	!	!LO:TX:b:t=una Corda	!	!
.	.	16dd/J	.	.
.	.	8ff#/	.	.
8e/	8A\ 8D\	16gg/L	8cc#\ 8g\	.
.	.	16ee/JJ)	.	.
=198	=198	=198	=198	=198
4d/	4A\ 4D\	(8aa^/L	4dd\ 4f#\	.
.	.	16ff#/L	.	.
.	.	16dd/	.	.
8e/	8A\ 8D\	16gg/	8cc#\ 8g\	.
.	.	16ee/JJ)	.	.
=199	=199	=199	=199	=199
4d/	4A\ 4D\	(8aa^/L	4dd\ 4f#\	.
.	.	16ff#/L	.	.
.	.	16dd/	.	.
8e/	8A\ 8D\	16gg/	8cc#\ 8g\	.
.	.	16ee/JJ)	.	.
=200	=200	=200	=200	=200
4d/	4A\ 4D\	(8ff#^/L	4a\ 4f#\	.
.	.	16ee/L	.	.
.	.	16b/	.	.
8e/	8A\ 8D\	16cc#/	8g\	.
.	.	16b/JJ)	.	.
=201	=201	=201	=201	=201
4d/	4A\ 4D\	(16a/LL	4f#\	.
.	.	16dd/J	.	.
.	.	8ff#/	.	.
8e/	8A\ 8D\	16gg/L	8cc#\ 8g\	.
.	.	16ee/JJ)	.	.
!!LO:PB:g=original
=202	=202	=202	=202	=202
4d/	4A\ 4D\	(8aa^/L	4dd\ 4f#\	.
.	.	16ff#/L	.	.
.	.	16dd/	.	.
8e/	8A\ 8D\	16gg/	8cc#\ 8g\	.
.	.	16ee/JJ)	.	.
=203	=203	=203	=203	=203
4d/	4A\ 4D\	(8aa^/L	4dd\ 4f#\	.
.	.	16ff#/L	.	.
.	.	16dd/	.	.
8e/	8A\ 8D\	16gg/	8cc#\ 8g\	.
.	.	16ee/JJ)	.	.
=204	=204	=204	=204	=204
4d/	4A\ 4D\	(8aa^/L	4dd\ 4f#\	.
!	!	!LO:TX:b:t=sempre	!	!
.	.	16gg/L	.	.
.	.	16ee/	.	.
8e/	8A\ 8D\	16ff#/	8a\ 8f#\	.
.	.	16dd/JJ)	.	.
=205	=205	=205	=205	=205
4c#/	4A\ 4D\	(16ee/LL	4.g\	ppp
.	.	16b/J	.	.
.	.	8cc#/	.	.
8c#/	8A\ 8D\	8a/J)	.	.
=206	=206	=206	=206	=206
4d/	4A\ 4D\	(8.ff#/L	4.a\ 4.f#\	.
.	.	16dd/L	.	.
8d/	8A\ 8D\	16a/	.	.
.	.	16f#/JJ)	.	.
=207	=207	=207	=207	=207
4e/	4A\ 4D\	(16b/LL	4.g\	<
.	.	16g/J	.	.
.	.	8cc#/	.	.
8e/	8A\ 8D\	8a/J)	.	.
!!LO:LB:g=original
=208	=208	=208	=208	=208
4d/	4A\ 4D\	(8.aa^/L	4.dd\ 4.f#\	[ >
.	.	16ff#/L	.	.
8d/	8A\ 8D\	16dd/	.	.
.	.	16a/JJ)	.	.
=209	=209	=209	=209	=209
4c#/	4A\ 4D\	(16ee/LL	4.g\	]
.	.	16b/J	.	.
.	.	8cc#/	.	.
8c#/	8A\ 8D\	8a/J)	.	.
=210	=210	=210	=210	=210
4d/	4A\ 4D\	(8.ff#/L	4.a\ 4.f#\	.
.	.	16dd/L	.	.
8d/	8A\ 8D\	16a/	.	.
.	.	16f#/JJ)	.	.
=211	=211	=211	=211	=211
4e/	4A\ 4D\	(16b/LL	4.g\	.
.	.	16g/J	.	.
.	.	8cc#/	.	.
8e/	8A\ 8D\	8a/J)	.	.
=212	=212	=212	=212	=212
4d/	4A\ 4D\	(4dd/	4.f#\	.
8d/	8A\ 8D\	8a/)	.	.
=213	=213	=213	=213	=213
*	*	*	*	*^
!	!	!	!	!LO:DY:rj	!LO:DY:rj:b=2
4D/	4AA\ 4DD\	(16a/LL	4f#\	ff	ff
*	*	*	*	*v	*v
!	!	!LO:TX:b:t=con fuoco	!	!
.	.	16dd/J	.	.
.	.	8ff#/	.	.
8E/	8AA\ 8DD\	16gg/L	8cc#\ 8g\	.
.	.	16ee/JJ)	.	.
!!LO:LB:g=original
=214	=214	=214	=214	=214
4D/	4AA\ 4DD\	(8aa^/L	4dd\ 4f#\	.
.	.	16ff#/L	.	.
.	.	16dd/	.	.
8E/	8AA\ 8DD\	16gg/	8cc#\ 8g\	.
.	.	16ee/JJ)	.	.
=215	=215	=215	=215	=215
4D/	4AA\ 4DD\	(8aa^/L	4dd\ 4f#\	.
.	.	16ff#/L	.	.
.	.	16dd/	.	.
8E/	8AA\ 8DD\	16gg/	8cc#\ 8g\	.
.	.	16ee/JJ)	.	.
=216	=216	=216	=216	=216
4D/	4AA\ 4DD\	(8ff#^/L	4a\ 4f#\	.
.	.	16ee/L	.	.
.	.	16b/	.	.
8E/	8AA\ 8DD\	16cc#/	8g\	.
.	.	16b/JJ)	.	.
=217	=217	=217	=217	=217
4D/	4AA\ 4DD\	(16a/LL	4f#\	.
.	.	16dd/J	.	.
.	.	8ff#/	.	.
8E/	8AA\ 8DD\	16gg/L	8cc#\ 8g\	.
.	.	16ee/JJ)	.	.
=218	=218	=218	=218	=218
4D/	4AA\ 4DD\	(8aa^/L	4dd\ 4f#\	.
.	.	16ff#/L	.	.
.	.	16dd/	.	.
8E/	8AA\ 8DD\	16gg/	8cc#\ 8g\	.
.	.	16ee/JJ)	.	.
=219	=219	=219	=219	=219
4D/	4AA\ 4DD\	(8aa^/L	4dd\ 4f#\	.
.	.	16ff#/L	.	.
.	.	16dd/	.	.
8E/	8AA\ 8DD\	16gg/	8cc#\ 8g\	.
.	.	16ee/JJ)	.	.
!!LO:LB:g=original
=220	=220	=220	=220	=220
4D/	4AA\ 4DD\	(8aa^/L	4dd\ 4f#\	.
.	.	16gg/L	.	.
.	.	16ee/	.	.
8D/	8AA\ 8DD\	16ff#/	8a\ 8f#\	.
.	.	16dd/JJ)	.	.
=221	=221	=221	=221	=221
4C#/	4AA\ 4DD\	(16ee/LL	4.g\	.
.	.	16b/J	.	.
.	.	8cc#/	.	.
8C#/	8AA\ 8DD\	8a/J)	.	.
=222	=222	=222	=222	=222
4D/	4AA\ 4DD\	(8.ff#^/L	4.a\ 4.f#\	.
.	.	16dd/L	.	.
8D/	8AA\ 8DD\	16a/	.	.
.	.	16f#/JJ)	.	.
=223	=223	=223	=223	=223
4E/	4AA\ 4DD\	(16b/LL	4.c#\	.
.	.	16g/J	.	.
.	.	8cc#/	.	.
8E/	8AA\ 8DD\	8a/J)	.	.
=224	=224	=224	=224	=224
4D/	4AA\ 4DD\	(8.aa^/L	4.dd\ 4.f#\	.
.	.	16ff#/L	.	.
8D/	8AA\ 8DD\	16dd/	.	.
.	.	16a/JJ)	.	.
=225	=225	=225	=225	=225
4C#/	4AA\ 4DD\	(16ee/LL	4.g\	.
.	.	16b/J	.	.
.	.	8cc#/	.	.
8C#/	8AA\ 8DD\	8a/J)	.	.
!!LO:LB:g=original
=226	=226	=226	=226	=226
4D/	4AA\ 4DD\	(8.ff#^/L	4.a\ 4.f#\	.
.	.	16dd/L	.	.
8D/	8AA\ 8DD\	16a/	.	.
.	.	16f#/JJ)	.	.
=227	=227	=227	=227	=227
4E/	4AA\ 4DD\	(16b/LL	4.c#\	.
.	.	16g/J	.	.
.	.	8cc#/	.	.
8E/	8AA\ 8DD\	8a/J)	.	.
=228	=228	=228	=228	=228
4D/	4AA\ 4DD\	4dd/ 4f#/	4d\	>
8d/	8D\	8r	8ryy	.
*	*	*v	*v	*
=229	=229	=229	=229
(4c#/	4D\	(16a/LL	] p
.	.	16e/J	.
.	.	8f#/	.
8cn/)	8D\	8d/J)	.
=230	=230	=230	=230
(4B/	4D\	(8.b^/L	.
.	.	16g/L	.
8B-X/)	8D\	16e/	.
.	.	16d/JJ)	.
=231	=231	=231	=231
(4A/	4D\	(16.c#/LL	<
.	.	32g/JJk	.
.	.	8b/L	.
8A/)	8D\	8a/J)	[[
!!LO:PB:g=original
=232	=232	=232	=232
*	*	*^	*
4A/	4D\	(8.ff#^/L	4.f#\	>
.	.	16dd/L	.	.
8D/	8DD\	16a/	.	.
.	.	16f#/JJ)	.	.
=233	=233	=233	=233	=233
(4C#/	4DD\	(16a/LL	4.A\	] p
.	.	16e/J	.	.
.	.	8f#/	.	.
8Cn/)	8DD\	8d/J)	.	.
=234	=234	=234	=234	=234
(4BB/	4DD\	(8.b^/L	4.G\	.
.	.	16g/L	.	.
8BB-X/)	8DD\	16e/	.	.
.	.	16d/JJ)	.	.
=235	=235	=235	=235	=235
4AA^/	4DD\	(16c#/LL	4.G\	<
.	.	16g/J	.	.
.	.	8b/	.	.
8A\ 8D\	8ryy	8a/J)	.	.
*v	*v	*	*	*
=236	=236	=236	=236
4AA/ 4DD^/	(8.ff#^/L	4.f#\	[ >
.	16dd/L	.	.
8A\ 8D\	16a/	.	.
.	16f#/JJ)	.	.
=237	=237	=237	=237
4AA/ 4DD^/	(16c#/LL	4.G\	] <
.	16g/J	.	.
.	8b/	.	.
8A\ 8D\	8a/J)	.	.
!!LO:LB:g=original
=238	=238	=238	=238
4AA/ 4DD^/	(8.ff#^/L	4.f#\	[ >
.	16dd/L	.	.
8A\ 8D\	16a/	.	.
.	16f#/JJ)	.	.
=239	=239	=239	=239
4AA/ 4DD^/	(16c#/LL	4.G\	] <
.	16g/J	.	.
.	8b/	.	.
8A\ 8D\	8a^</J)	.	.
=240	=240	=240	=240
4AA/ 4DD^/	(16e/LL	4.c#\	.
.	16g/J	.	.
.	8dd/	.	.
8A\ 8D\	8cc#^</J)	.	.
=241	=241	=241	=241
4AA/ 4DD^/	(16g/LL	4.e\	.
.	16cc#/J	.	.
.	8ff#/	.	.
8A\ 8D\	8ee^</J)	.	.
=242	=242	=242	=242
4AA/ 4DD^/	(16cc#/LL	4.g\	.
.	16gg/J	.	.
.	8bb/	.	.
8A\ 8D\	8aa^</J)	.	.
*	*v	*v	*
=243	=243	=243
(8qGG#X/	(8qf#/	[ pp
!	!LO:TUP:a	!
4AA/ 4DD^/)	24aa\LL 24dd'\)	.
.	24aa\ 24dd'\	.
.	24aa\JJ 24dd'\	.
.	8aa\L 8dd'\	.
8AA/ 8DD/	8aa\J 8dd'^\	.
!!LO:LB:g=original
=244	=244	=244
(8qGG#X/	(<8qgg#X/	.
4AA/ 4DD^/)	8aa\L 8cc#\)	.
.	(<8qgg#/	.
.	8aa\ 8cc#\)	.
.	(<8qgg#/	.
8AA/ 8DD/	8aa\J 8cc#^\)	.
=245	=245	=245
(8qGG#X/	.	.
!	!LO:TUP:a	!
4AA/ 4DD^/)	24aa\LL 24dd'\	.
.	24aa\ 24dd'\	.
.	24aa\JJ 24dd'\	.
.	8aa\L 8dd\	.
8AA/ 8DD/	8aa\J 8dd^\	.
=246	=246	=246
(8qGG#X/	(<8qgg#X/	.
4AA/ 4DD^/)	8aa\L 8cc#\)	.
.	(<8qgg#/	.
.	8aa\ 8cc#\)	.
.	(<8qgg#/	.
8AA/ 8DD/	8aa\J 8cc#^\)	.
=247	=247	=247
!	!LO:TX:b:t=una Corda	!
!	!LO:TX:b:t=poco a poco morendo:ext2=cd:problem=dynamics with extention lines	!
(8qGG#X/	(<8qgg#X/	.
4.AA/ 4.DD/)	16aa\LL 16dd'\)	.
.	16aa\JJ 16dd'\	.
.	8aa\L 8dd'\	.
.	8aa\J 8dd'\	.
=248	=248	=248
(8qGG#X/	.	.
16AA/LL 16DD'/)	4.r	.
16AA/JJ 16DD'/	.	.
8AA/L 8DD'/	.	.
8AA/J 8DD'/	.	.
=249	=249	=249
4.r	16a/LL 16d'/	.
.	16a/JJ 16d'/	.
.	8a/L 8d'/	.
.	8a/J 8d'/	.
!!LO:LB:g=original
=250	=250	=250
16AA/LL 16DD'/	4.r	.
16AA/JJ 16DD'/	.	.
8AA/L 8DD'/	.	.
8AA/J 8DD'/	.	.
=251	=251	=251
.	(8qg#X/	.
4r	4.a/ 4.d^>/)	.
(8qGG#X/	.	.
8AA/ 8DD^/)	.	.
=252	=252	=252
.	(8qG#X</	.
4r	4.A</ 4.D<^>/)	.
(<8qGG#X/	.	.
8AA\ 8DD^>\)	.	.
=253	=253	=253
.	(8qg#X/	.
4r	4.a/ 4.d^>/)	.
(8qGG#X/	.	.
8AA/ 8DD^/)	.	.
=254	=254	=254
.	(8qG#X</	.
4r	4.A</ 4.D<^/)	.
(<8qGG#X/	.	.
8AA\ 8DD^>\)	.	.
=255	=255	=255
.	(8qg#X/	.
4.r	[4.a/ [4.d^/)	.
!!LO:LB:g=original
=256	=256	=256
(8qGG#X/	.	.
[4.AA/ [4.DD^/)	4.a/] 4.d/]	.
*	*clefF4	*
=257	=257	=257
.	(8qG#X/	.
4.AA/] 4.DD/]	[4.A\ [4.D^\)	.
=258	=258	=258
(8qGG#X/	.	.
[4.AA/ [4.DD^/)	4.A\] 4.D\]	.
=259	=259	=259
.	(8qG#X/	.
4.AA/] 4.DD/]	[4.A\ [4.D^\)	.
=260	=260	=260
!	!LO:TX:b:t=rall.	!
(8qGG#X/	.	.
4.AA/ 4.DD^/)	4.A\] 4.D\]	.
=261	=261	=261
(8qGG#X/	.	.
4.AA/ 4.DD^/)	4.r	.
=262	=262	=262
(8qGG#X/	.	.
4.AA/ 4.DD^/)	4.r	.
=263	=263	=263
!	!LO:TX:b:t=Lunga\nPausa.	!
4.r;	4.r;	.
=264	=264	=264
.	(8qe/	.
*	*	*^
!	!	!LO:DY:rj	!LO:DY:rj:b=2
8D/ 8AA/ 8FF#/ 8DD/	8f#\ 8F#\)	sf	sf
*	*	*v	*v
8r	8r	.
8r	8r	.
==	==	==
*-	*-	*-
!!!system-decoration: [(s1,s2)]
!!!RDF**kern: > = above
!!!RDF**kern: < = below
!!!ENC: Filip Voros
!!!END: 2022-02-21
!!!ENC: Leszek Kubiak
!!!END: 2022-02-24
